X: 36452
T: Second Star, The
R: hornpipe
M: 4/4
K: Amajor
|:CD|EAcB AGFE|DFBc (3dcB cA|GBgf ecBA|cAFA E4|
EAcB AGFE|DFBc (3dcB cA|GedB GEDB,|1 A,2 A2 A2:|2 A,2 A2 A2||
|:(3efg|a2 CE Acea|f2 DF Adfa|e2 B,D GBde|c2 A,C EAce|
a2 CE Acea|f2 DF Adfa|gfe^d =dc BG|1 (3Ace (3aec A2:|2 (3Ace (3aec A2||

